images/sponsor_statickit.svg

<svg width="182" height="51" viewBox="0 0 182 51" fill="none" xmlns="http://www.w3.org/2000/svg">
<path d="M30.31 30.7094L45.06 13.9049L41.749 10.625L27 27.4295L30.31 30.7094ZM32.792 41.4375L47.54 24.633L44.23 21.3531L29.482 38.1576L32.792 41.4375ZM64.053 22.083C63.6683 21.5719 63.1742 21.1657 62.612 20.8983C62.018 20.6051 61.446 20.4584 60.894 20.4584C60.61 20.4584 60.322 20.485 60.03 20.5381C59.737 20.5912 59.474 20.6943 59.24 20.8452C59.006 20.9961 58.81 21.1916 58.65 21.4306C58.492 21.6708 58.413 21.9767 58.413 22.3497C58.413 22.6684 58.475 22.9362 58.601 23.1487C58.726 23.3612 58.91 23.5482 59.152 23.7086C59.394 23.868 59.682 24.0146 60.017 24.1474C60.351 24.2813 60.727 24.4184 61.145 24.5607C61.747 24.7732 62.374 25.0091 63.025 25.2663C63.6618 25.515 64.2613 25.8603 64.805 26.2916C65.34 26.7176 65.783 27.2467 66.134 27.8768C66.484 28.5069 66.66 29.2931 66.66 30.2345C66.66 31.3172 66.472 32.2533 66.096 33.0438C65.7381 33.811 65.2195 34.4809 64.58 35.0019C63.9273 35.5262 63.1874 35.9148 62.399 36.1473C61.5755 36.3963 60.7232 36.5214 59.867 36.5192C58.597 36.5192 57.368 36.2854 56.182 35.8148C54.995 35.3441 54.009 34.6736 53.223 33.8034L56.031 30.7668C56.466 31.3353 57.038 31.8102 57.748 32.1916C58.458 32.5741 59.165 32.7654 59.867 32.7654C60.184 32.7654 60.493 32.7292 60.794 32.6581C61.095 32.5869 61.358 32.4711 61.584 32.3117C61.809 32.1523 61.989 31.9388 62.123 31.6721C62.257 31.4064 62.323 31.0866 62.323 30.7137C62.323 30.3588 62.24 30.056 62.073 29.8074C61.8791 29.5332 61.6361 29.3025 61.358 29.1284C60.9942 28.8976 60.6075 28.7102 60.205 28.5696C59.745 28.4006 59.223 28.2189 58.638 28.0234C58.0698 27.8281 57.5131 27.5968 56.971 27.3307C56.4387 27.0721 55.9481 26.7261 55.517 26.3054C55.0829 25.8763 54.7335 25.3599 54.489 24.786C54.23 24.1921 54.101 23.4685 54.101 22.6164C54.101 21.5687 54.301 20.672 54.702 19.9261C55.0911 19.1944 55.6313 18.5659 56.282 18.088C56.9521 17.5999 57.6993 17.2436 58.488 17.0361C59.2989 16.815 60.1328 16.7029 60.97 16.7025C61.972 16.7025 62.996 16.898 64.04 17.289C65.085 17.68 66 18.2559 66.786 19.0209L64.053 22.083V22.083ZM73.73 26.0525V31.1132C73.73 31.7348 73.843 32.2001 74.068 32.5114C74.294 32.8217 74.699 32.9779 75.284 32.9779C75.484 32.9779 75.698 32.9598 75.924 32.9248C76.1175 32.8985 76.3069 32.8449 76.487 32.7654L76.537 35.9603C76.254 36.0666 75.894 36.1601 75.46 36.2408C75.0293 36.3201 74.5931 36.3599 74.156 36.3598C73.32 36.3598 72.618 36.2493 72.05 36.0273C71.482 35.8052 71.027 35.4854 70.684 35.0689C70.3342 34.6375 70.0812 34.1275 69.944 33.5771C69.7874 32.947 69.7117 32.2972 69.719 31.6455V26.0525H67.713V22.7758H69.693V19.2865H73.73V22.7758H76.663V26.0525H73.73ZM85.964 30.26H85.437C84.986 30.26 84.531 30.2823 84.071 30.3269C83.611 30.3716 83.201 30.4566 82.843 30.5798C82.5109 30.6872 82.2065 30.874 81.953 31.1259C81.719 31.3661 81.602 31.6816 81.602 32.0716C81.602 32.3202 81.656 32.5338 81.765 32.7112C81.873 32.8886 82.011 33.0299 82.178 33.1372C82.345 33.2435 82.538 33.3189 82.755 33.3636C82.972 33.4082 83.181 33.4305 83.382 33.4305C84.217 33.4305 84.856 33.1861 85.299 32.6974C85.742 32.2086 85.964 31.5477 85.964 30.7137V30.2611V30.26ZM78.418 24.5862C79.1536 23.8405 80.0295 23.2688 80.988 22.9086C81.9483 22.5392 82.9617 22.35 83.983 22.3497C85.036 22.3497 85.926 22.4878 86.653 22.763C87.38 23.0382 87.969 23.4643 88.42 24.0412C88.872 24.6181 89.202 25.3459 89.41 26.2257C89.62 27.1044 89.724 28.1478 89.724 29.3548V36.0411H85.964V34.629H85.888C85.571 35.1794 85.09 35.6065 84.447 35.9072C83.787 36.2126 83.0738 36.3668 82.354 36.3598C81.8294 36.357 81.3072 36.2856 80.799 36.1473C80.2756 36.0104 79.7792 35.7758 79.333 35.4546C78.8811 35.1243 78.5079 34.6866 78.243 34.1764C77.958 33.643 77.816 32.9864 77.816 32.2054C77.816 31.246 78.063 30.4736 78.556 29.8881C79.049 29.3016 79.684 28.849 80.461 28.5292C81.238 28.2104 82.103 27.9969 83.056 27.8906C84.008 27.7844 84.936 27.7302 85.838 27.7302V27.5177C85.838 26.86 85.621 26.3766 85.187 26.0652C84.752 25.755 84.217 25.5988 83.582 25.5988C82.997 25.5988 82.433 25.7327 81.89 25.9994C81.3823 26.2408 80.9128 26.564 80.498 26.9577L78.418 24.5873V24.5862ZM97.106 26.0525V31.1132C97.106 31.7348 97.218 32.2001 97.444 32.5114C97.669 32.8217 98.074 32.9779 98.66 32.9779C98.86 32.9779 99.073 32.9598 99.299 32.9248C99.525 32.8886 99.713 32.8355 99.863 32.7654L99.913 35.9603C99.629 36.0666 99.27 36.1601 98.835 36.2408C98.4047 36.32 97.9687 36.3598 97.532 36.3598C96.696 36.3598 95.994 36.2493 95.426 36.0273C94.858 35.8052 94.402 35.4854 94.06 35.0689C93.7102 34.6376 93.4571 34.1275 93.32 33.5771C93.1631 32.947 93.0871 32.2973 93.094 31.6455V26.0525H91.09V22.7758H93.07V19.2865H97.107V22.7758H100.04V26.0525H97.107H97.106ZM106.431 18.5406C106.431 18.8785 106.368 19.193 106.243 19.4863C106.123 19.7712 105.953 20.0291 105.742 20.2459C105.289 20.6928 104.693 20.9404 104.075 20.9387C103.406 20.9387 102.846 20.7028 102.395 20.2321C102.178 20.0153 102.006 19.753 101.889 19.4618C101.773 19.1707 101.715 18.857 101.718 18.5406C101.718 18.2219 101.777 17.9148 101.894 17.6216C102.011 17.3294 102.178 17.0754 102.395 16.8629C102.612 16.6504 102.863 16.4762 103.147 16.3434C103.431 16.2106 103.74 16.1436 104.075 16.1436C104.392 16.1436 104.697 16.2053 104.99 16.3296C105.282 16.4539 105.533 16.6228 105.742 16.8364C105.951 17.0489 106.118 17.3028 106.243 17.595C106.369 17.8882 106.431 18.2038 106.431 18.5406V18.5406ZM102.02 36.04V22.7768H106.131V36.0421H102.02V36.04ZM117.293 27.064C117.039 26.7281 116.712 26.463 116.34 26.2916C115.956 26.1005 115.536 26.0008 115.112 25.9994C114.677 25.9994 114.284 26.0918 113.933 26.2788C113.588 26.4604 113.281 26.7141 113.031 27.0247C112.781 27.3349 112.584 27.6941 112.441 28.1031C112.298 28.5211 112.226 28.963 112.229 29.4079C112.229 29.8701 112.296 30.3046 112.429 30.7137C112.557 31.1109 112.757 31.4774 113.019 31.7921C113.277 32.1034 113.587 32.3467 113.946 32.5252C114.306 32.7027 114.711 32.7909 115.162 32.7909C115.58 32.7909 115.993 32.7059 116.402 32.538C116.812 32.3691 117.142 32.1247 117.392 31.8049L119.674 34.7618C119.156 35.2952 118.488 35.7117 117.669 36.0134C116.83 36.3193 115.948 36.4726 115.061 36.4671C114.123 36.4752 113.191 36.3127 112.304 35.9869C111.482 35.6867 110.727 35.2108 110.085 34.5886C109.451 33.9653 108.947 33.2077 108.606 32.3648C108.246 31.4946 108.067 30.5097 108.067 29.4079C108.067 28.3241 108.247 27.3487 108.607 26.4786C108.948 25.6357 109.452 24.8782 110.085 24.2547C110.728 23.6309 111.483 23.1504 112.304 22.8416C113.609 22.3467 115.014 22.2229 116.378 22.4825C116.821 22.5717 117.247 22.6918 117.656 22.8427C118.066 22.9936 118.442 23.1795 118.784 23.4016C119.127 23.6247 119.424 23.868 119.674 24.1347L117.293 27.064V27.064ZM132.384 36.0411L125.791 27.3572H125.741V36.0411H121.529V17.1806H125.741V24.8519H125.816L132.159 17.1806H137.523L129.877 25.8644L137.975 36.04H132.384V36.0411ZM143.59 18.5417C143.59 18.8785 143.528 19.193 143.402 19.4873C143.282 19.772 143.112 20.0295 142.901 20.2459C142.448 20.6924 141.852 20.94 141.234 20.9387C140.565 20.9387 140.005 20.7028 139.554 20.2321C139.337 20.0152 139.165 19.7529 139.049 19.4618C138.932 19.1707 138.874 18.857 138.877 18.5406C138.877 18.2219 138.936 17.9148 139.053 17.6216C139.17 17.3294 139.337 17.0754 139.554 16.8629C139.771 16.6504 140.022 16.4762 140.306 16.3434C140.59 16.2106 140.899 16.1436 141.234 16.1436C141.852 16.1424 142.448 16.3899 142.901 16.8364C143.11 17.0489 143.277 17.3028 143.402 17.595C143.528 17.8882 143.59 18.2038 143.59 18.5406V18.5417ZM139.178 36.0411V22.7758H143.289V36.0411H139.178ZM151.011 26.0525V31.1132C151.011 31.7348 151.123 32.2001 151.349 32.5114C151.575 32.8217 151.98 32.9779 152.565 32.9779C152.765 32.9779 152.979 32.9598 153.204 32.9248C153.398 32.8987 153.588 32.8451 153.768 32.7654L153.818 35.9603C153.534 36.0666 153.175 36.1601 152.74 36.2408C152.31 36.3201 151.874 36.3599 151.437 36.3598C150.601 36.3598 149.899 36.2493 149.331 36.0273C148.763 35.8052 148.307 35.4854 147.965 35.0689C147.615 34.6375 147.362 34.1274 147.225 33.5771C147.069 32.9469 146.993 32.2972 147 31.6455V26.0525H144.994V22.7758H146.975V19.2865H151.011V22.7758H153.944V26.0525H151.011V26.0525Z" fill="#9FA6B2"/>
</svg>

<svg xmlns="http://www.w3.org/2000/svg" width="182" height="51" fill="none"  xmlns:v="https://vecta.io/nano"><path d="M30.3 30.71l14.75-16.804-3.31-3.28L27 27.43l3.3 3.28zm2.482 10.728L47.54 24.633l-3.3-3.28-14.748 16.805 3.3 3.28zm31.26-19.354a3.91 3.91 0 0 0-1.441-1.185c-.594-.293-1.166-.44-1.718-.44a4.82 4.82 0 0 0-.864.08 2.15 2.15 0 0 0-.79.307 2.03 2.03 0 0 0-.59.585c-.158.24-.237.546-.237.92 0 .32.062.587.188.8s.31.4.55.56.53.306.865.44l1.128.413 1.88.706a6.91 6.91 0 0 1 1.78 1.025 5.29 5.29 0 0 1 1.329 1.585c.35.63.526 1.416.526 2.358 0 1.083-.188 2.02-.564 2.81-.358.767-.877 1.437-1.516 1.958-.653.524-1.393.913-2.18 1.145-.824.25-1.676.374-2.532.372-1.27 0-2.5-.234-3.685-.704s-2.173-1.14-2.96-2.01l2.808-3.037c.435.57 1.007 1.043 1.717 1.425s1.417.574 2.12.574a4.02 4.02 0 0 0 .927-.107c.3-.07.564-.187.8-.346s.405-.373.54-.64.2-.585.2-.958c0-.355-.083-.658-.25-.906-.194-.274-.437-.505-.715-.68a5.6 5.6 0 0 0-1.153-.559l-1.567-.546a14.42 14.42 0 0 1-1.667-.693c-.532-.26-1.023-.605-1.454-1.025-.434-.43-.784-.945-1.028-1.52-.26-.594-.388-1.318-.388-2.17 0-1.048.2-1.944.6-2.7a5.45 5.45 0 0 1 1.58-1.838 6.6 6.6 0 0 1 2.206-1.052 9.45 9.45 0 0 1 2.482-.334c1.002 0 2.026.195 3.07.587s1.96.967 2.746 1.732l-2.733 3.062zm9.677 3.97v5.06c0 .622.113 1.087.338 1.398s.63.466 1.216.466a4.2 4.2 0 0 0 .64-.053 2.09 2.09 0 0 0 .563-.159l.05 3.195c-.283.106-.643.2-1.077.28a7.19 7.19 0 0 1-1.304.119c-.836 0-1.538-.11-2.106-.333s-1.023-.542-1.366-.958c-.35-.43-.603-.94-.74-1.492-.157-.63-.232-1.28-.225-1.932v-5.593h-2.006v-3.277h1.98v-3.49h4.037v3.49h2.933v3.277H73.73zm12.234 4.208h-.527l-1.366.067a5.38 5.38 0 0 0-1.228.253c-.332.107-.636.294-.9.546-.234.24-.35.556-.35.946 0 .25.054.462.163.64s.246.32.413.426.36.182.577.226.426.067.627.067c.835 0 1.474-.244 1.917-.733s.665-1.15.665-1.984v-.454zm-7.546-5.674c.736-.746 1.61-1.317 2.57-1.678.96-.37 1.974-.56 2.995-.56 1.053 0 1.943.138 2.67.413s1.316.7 1.767 1.278.782 1.305 1 2.185.314 1.922.314 3.13v6.686h-3.76V34.63h-.076c-.317.55-.798.977-1.44 1.278-.66.305-1.373.46-2.093.453a6.04 6.04 0 0 1-1.555-.212c-.523-.137-1.02-.372-1.466-.693a3.68 3.68 0 0 1-1.09-1.278c-.285-.533-.427-1.2-.427-1.97 0-.96.247-1.732.74-2.317s1.128-1.04 1.905-1.36 1.642-.532 2.595-.64a25.11 25.11 0 0 1 2.782-.16v-.212c0-.658-.217-1.14-.65-1.453s-.97-.466-1.605-.466c-.585 0-1.15.134-1.692.4a5.38 5.38 0 0 0-1.392.958l-2.08-2.37zm18.688 1.466v5.06c0 .622.112 1.087.338 1.398s.63.466 1.216.466a4.19 4.19 0 0 0 .639-.053c.226-.036.414-.09.564-.16l.05 3.195a6.54 6.54 0 0 1-1.078.281c-.43.08-.866.12-1.303.12-.836 0-1.538-.11-2.106-.333s-1.024-.542-1.366-.958c-.35-.43-.603-.94-.74-1.492a7.66 7.66 0 0 1-.226-1.932v-5.593H91.1v-3.277h1.98v-3.49h4.037v3.49h2.933v3.277h-2.934zm9.325-7.512c0 .338-.063.652-.188.946-.12.285-.3.543-.5.76-.453.447-1.05.695-1.667.693a2.23 2.23 0 0 1-1.68-.707 2.3 2.3 0 0 1-.506-.77 2.43 2.43 0 0 1-.171-.921 2.46 2.46 0 0 1 .176-.919c.117-.292.284-.546.5-.76s.468-.387.752-.52.593-.2.928-.2a2.32 2.32 0 0 1 .915.186c.292.124.543.293.752.507s.376.466.5.76a2.37 2.37 0 0 1 .188.946h0zm-4.41 17.5V22.777h4.11v13.265h-4.11v-.002zm15.273-8.976a2.52 2.52 0 0 0-.953-.772c-.384-.19-.804-.29-1.228-.292-.435 0-.828.092-1.18.28-.345.182-.652.435-.902.746a3.59 3.59 0 0 0-.59 1.078 3.95 3.95 0 0 0-.212 1.305c0 .462.067.897.2 1.306.128.397.328.764.6 1.078a2.82 2.82 0 0 0 .927.733c.36.178.765.266 1.216.266a3.24 3.24 0 0 0 1.24-.253c.4-.17.74-.413 1-.733l2.282 2.957c-.518.533-1.186.95-2.005 1.252-.84.306-1.72.46-2.608.454-.938.008-1.87-.154-2.757-.48-.822-.3-1.577-.776-2.22-1.398a6.57 6.57 0 0 1-1.479-2.224c-.36-.87-.54-1.855-.54-2.957 0-1.084.18-2.06.54-2.93.34-.843.845-1.6 1.478-2.224.643-.624 1.398-1.104 2.22-1.413a7.51 7.51 0 0 1 4.074-.359c.443.09.87.21 1.278.36s.786.337 1.128.56a4.79 4.79 0 0 1 .89.733l-2.38 2.93zm15.09 8.977l-6.593-8.684h-.05v8.684h-4.212V17.18h4.212v7.67h.075l6.343-7.67h5.364l-7.646 8.684 8.098 10.176h-5.59 0zm11.206-17.5c0 .337-.062.65-.188.946-.12.285-.3.542-.5.76-.453.447-1.05.694-1.667.693a2.23 2.23 0 0 1-1.68-.707c-.217-.217-.39-.48-.505-.77a2.41 2.41 0 0 1-.172-.921 2.46 2.46 0 0 1 .176-.919c.117-.292.284-.546.5-.76s.468-.387.752-.52.593-.2.928-.2c.618-.001 1.214.246 1.667.693.21.212.376.466.5.76a2.37 2.37 0 0 1 .188.946v.001zm-4.412 17.5V22.776h4.11V36.04h-4.11zm11.833-9.99v5.06c0 .622.112 1.087.338 1.398s.63.466 1.216.466a4.18 4.18 0 0 0 .639-.053 2.08 2.08 0 0 0 .564-.159l.05 3.195a6.54 6.54 0 0 1-1.078.281c-.43.08-.866.12-1.303.12-.836 0-1.538-.11-2.106-.333s-1.024-.542-1.366-.958a3.84 3.84 0 0 1-.74-1.492 7.7 7.7 0 0 1-.225-1.932v-5.593h-2.006v-3.277h1.98v-3.49h4.036v3.49h2.933v3.277h-2.933z" fill="#9fa6b2"/></svg>
